X:1
T: Lull Me Beyond Thee
N:
C:
S:Play 3 times
A:
O:
R:
M:6/8
K:Em
I:speed 150
%W: A1
% voice 1 (1 lines, 32 notes)
K:Em
M:6/8
L:1/16
B4 B2 g3 f g2 a3 g a2 b6 B4 B2 g3 f e2 ^d6 e6 |B4 B2 g3 f g2 a3 g a2 b6 B4 B2 g3 f e2 ^d6 e6 |
%W: A2
% voice 1 (1 lines, 32 notes)
B4 B2 g3 f g2 a3 g a2 b6 B4 B2 g3 f e2 ^d6 e6 |B4 B2 g3 f g2 a3 g a2 b6 B4 B2 g3 f e2 ^d6 e6 |
%W: B1
% voice 1 (1 lines, 34 notes)
g4 g2 a3 g a2 b3 c' b2 a4 d2 g4 g2 a3 g a2 b6 a6 |b3 c' b2 a3 g f2 g3 f e2 b6 B4 B2 g3 f e2 ^d6 e6 |
%W: B2
% voice 1 (1 lines, 34 notes)
g4 g2 a3 g a2 b3 c' b2 a4 d2 g4 g2 a3 g a2 b6 a6 |b3 c' b2 a3 g f2 g3 f e2 b6 B4 B2 g3 f e2 ^d6 e6 ||
